X:1
T:James Gibb editions
T:Soledad tengo de ti - Vásquez
T:#
%%score [ 1 2 3 4 ]
L:1/8
Q:1/4=140
M:4/4
K:C
V:1 treble nm="Soprano" snm="S"
V:2 treble nm="Alto" snm="A"
V:3 treble-8 nm="Tenor" snm="T"
V:4 bass nm="Bass" snm="B"
V:1
"^Juan Vásquez\n(c.1500-c.1560)""^Soledad tengo de ti" G8- | G8 | A8 | G8- | G4 F4 | E4 E4 | D8- | %7
w: So\-||le-|dad|* ten-|go de|ti,|
 D8 | z8 | z4 G4 | G4 G4 | A8 |[M:4/4] (B6 A2) | (B2 c2 B4 | A2 G2 G4- | G4 ^F4) | G8 | z8 | z8 | %19
w: ||Tier-|ra mi-|a|do *|na\- * *|||cí,|||
 z4 G4 | G4 G4 | A8 | (B6 A2) | (B2 c2 B4 | A2 G2 G4- | G4 ^F4) | G8- | G8 | z8 | z8 | z8 | z8 | %32
w: tier-|ra mi-|a|do *|na\- * *|||cí||||||
 z4 G2 G2 | A4 B4 | c8- | c4 B4 | A8 | G4 G4 | A4 B4 | c8- | c4 B4 | c4 d4 | e4 c4 | z4 e4 | %44
w: Si mu-|rie- re|sin|* ven-|tu-|ra, Se-|púl- ten-|me|* en|al- ta|sier- ra,|en|
 d4 c4- | c4 B4 | c8 | z8 | z8 | z8 | z8 | z4 G4 | A4 B4 | c4 c4- | c4 B4 | A8 | G8- | G8 | z4 B4 | %59
w: al- ta|* sier-|ra,|||||Por-|que no~es-|tra- ñe|* la|tier-|ra||Mi|
 c8 | G4 G4 | A8- | A4 G4 | F8 | E8 | z4 e4 | e8 | c8 | z4 c4 | d4 e4 | f8 | e4 c4- | c2 c2 c2 c2 | %73
w: cuer-|po~~en la|se\-|* pul-|tu-|ra;|Y~~en|sier-|ra|de|gran- de~~al-|tu-|ra, Por|* ver si ve-|
 B4 G4- | G4 ^F4 | G8 | z4 G4 | A8 | G8- | G4 F4 | E4 E4 | D8- | D8 | z8 | z4 G4 | G8 | A8 | %87
w: ré de|* a-|llí|Las|tier-|ras|* a|do na-|cí,|||las|tier-|ras|
 (B6 A2) | (B2 c2 B4) | (A2 G2 G4- | G4 ^F4) | G4 z2 G2 | G8 | A8 | (B6 A2) | %95
w: a *|do * *|na\- * *||cí, las|tier-|ras|a *|
[Q:1/4=139] (B2[Q:1/4=137] c2[Q:1/4=134] B4) |[Q:1/4=132] (A2[Q:1/4=130] G2[Q:1/4=127] G4- | %97
w: do * *|na\- * *|
[Q:1/4=124] G4[Q:1/4=121] ^F4) |[Q:1/4=120] G16 |] %99
w: |cí.|
V:2
 E8- | E8 | F8 | D4 (E4- | E4 D4) | (B,4 C4) | A,8 | B,4 D4 | D4 D4 | E8 | D8 | (E4 ^F4) | %12
w: So\-||le-|dad ten\-||go *|de|ti, Tier-|ra mi-|a|do|na\- *|
[M:4/4] G8 | z4 G4 | E8 | D8 | z4 E4 | D4 E4- | E4 F4 | (D4 E4) | D8 | E4 z2 ^F2 | G8 | G8 | E8 | %25
w: cí,|do|na-|cí,|tier-|ra mi\-|* a|do *|na-|cí, tier-|ra|mi-|a|
 D8 | D8- | D4 E4 | z8 | C4 C4 | D8 | E4 E4- | E2 E2 D4 | E4 F2 F2 | G2 G2 A4 | G8 | (E4 F4) | E8 | %38
w: do|na\-|* cí||Si mu-|ríe-|re sin|* ven- tu-|ra, si mu-|rie- re sin|ven-|tu\- *|ra,|
 z4 D4 | E4 F4 | G4 G4 | G2 G2 A4 | A8 | z4 c4 | B2 B2 G4 | G8 | z4 E4 | F4 G4 | F4 G4 | (F4 D4) | %50
w: Se-|púl- ten-|me en|al- ta sier-|ra,|en|al- ta sier-|ra,|Por-|que no~es-|tra- ñe|la *|
 E8 | D8 | z2 E2 F2 F2 | (G4 A4) | (G8 | F8 | D4 D4 | E8- | E4 D4 | z4 C4 | E8 | C4 F4- | %62
w: tier-|ra,|Por- que no|es\- *|tra\-||ñe la|tier\-|* ra|Mi|cuer-|po en|
 F2 F2 E2 E2 | C8 | C4 G4 | G8 | E4 G4 | A8 | G4 (A4- | A2 B2)) (c4- | c4 B4) | c4 A4- | %72
w: * la se- pul-|tu-|ra; Y~~en|sier-|ra de|gran-|de al\-|* * tu\-||ra, Por|
 A2 A2 A2 A2 | G8 | C8 | D8 | E4 E4 | F8 | D4 (E4- | E4 D4) | (B,4 C4) | A,8 | B,4 D4 | D4 D4 | %84
w: * ver si ve-|ré|de|a-|llí Las|tier-|ras a||do *|na-|cí, las|tier- ras|
 E8 | D8 | (E4 ^F4) | G8 | z4 G4 | E4 E4 | D8 | z4 D4 | E4 D2 D2 | F4 F4 | G8 | z4 G4 | E4 E4 | %97
w: a|do|na\- *|cí,|a|do na-|cí,|las|tier- ras a|do na-|cí,|a|do na-|
 D8- | D16 |] %99
w: cí.||
V:3
 z8 | c8- | c4 A4 | B4 (c4- | c2 B2) (A4- | A2 G2) (G4- | G4 ^F4) | G4 B4 | A4 B4 | c8- | c4 B4 | %11
w: |So\-|* le-|dad ten\-|* * go|* * de||ti, Tier-|ra mi-|a|* do|
 c4 d4- |[M:4/4][K:treble-8] d4 B2 c2 | (d2 e2) d4 | (c6 B2) | A8 | B4 G4 | G4 G4 | A8 | (B4 c4- | %20
w: na- cí,|* tier- ra|mi\- * a|do *|na-|cí, tier-|ra mi-|a|do *|
 c4) B4 | (c4 d4- | d4) B2 c2 | (d2 e2) d4 | (c6 B2) | A8 | B4 G4 | B4 c4 | z4 G2 G2 | A4 G4 | %30
w: * na-|cí, *|* tier- ra|mi\- * a|do *|na-|cí, do|na- cí|Si mu-|ríe- re|
 A4 B4 | (c8- | c4 B4) | c4 d2 d2 | e2 e2 f2 f2 | (e4 d4) | c8 | z8 | z8 | z4 c4 | d8 | e4 f4 | %42
w: sin ven-|tu\-||ra, si mu-|rie- re sin ven-|tu\- *|ra,|||Se-|púl-|ten- me~en|
 e8 | c8 | (d4 e4 | d8 | c8 | z4 G4 | A4 G4 | A4 B4 | c4 (c4- | c4 B4) | c4 d2 d2 | e4 f4 | %54
w: al-|ta|sier\- *||ra,|Por-|que no~es-|tra- ñe|la tier\-||ra, por- que|no~es- tra-|
 e2 e2 d4- | d4 c4 | z4 B4 | c8 | G8 | A6 B2 | c4 B4 | A4 c4 | z2 F2 G4 | A2 A2 A4 | G8 | z4 c4 | %66
w: ñe la tier\-|* ra|Mi|cuer-|po|en la|se- pul-|tu- ra,|en la|se- pul- tu-|ra;|Y~~en|
 c8 | F4 f4 | e4 f4- | f4 e4 | d8 | c4 e4- | e2 e2 f2 f2 | d4 e4- | e2 d2) (c4- | c4 B4) | c4 c4- | %77
w: sier-|ra de|gran- de|* al-|tu-|ra, Por|* ver si ve-|ré de|* * a\-||llí Las|
 c4 A4 | B4 (c4- | c2 B2) (A4- | A2 G2) (G4- | G4 ^F4) | G4 B4 | A4 B4 | c8- | c4 B4 | c4 d4- | %87
w: * tier-|ras a|* * do|* * na\-||cí, las|tier- ras|a|* do|na- cí,|
 d4 (B2 c2) | (d2 e2) d4 | c6 B2 | A8 | G4 B4 | c4 B2 B2 | c2 c2 d4- | d4 (B2 c2) | (d2 e2) d4 | %96
w: * las *|tier\- * ras|a do|na-|cí, las|tier- ras a|do na- cí,|* las *|tier\- * ras|
 c6 B2 | A8 | G16 |] %99
w: a do|na-|cí.|
V:4
 C,8- | C,8 | F,8 | G,4 (C,4- | C,4 D,4) | (E,4 C,4) | D,8 | G,,4 G,4 | F,4 G,2 G,2 | %9
w: So\-||le-|dad ten\-||go *|de|ti, Tier-|ra mi- a|
 (C,2 D,2) (E,2 F,2) | G,8 | z4 D,4 |[M:4/4] G,4 G,4 | G,8 | C,8 | D,8 | G,,4 C,4 | B,,4 C,4 | %18
w: do * na\- *|cí,|tier-|ra mi-|a|do|na-|cí, tier-|ra mi-|
 A,,4 D,2 D,2 | G,,8- | G,,8 | z4 D,4 | G,4 G,4 | G,8 | C,8 | D,8 | G,,8 | z4 C,2 C,2 | D,4 E,4 | %29
w: a do na-|cí,||tier-|ra mi-|a|do|na-|cí|Si mu-|rie- re|
 (F,4 E,4) | (F,4 G,4) | (C,2 D,2 E,2 F,2) | G,8 | z8 | z8 | z4 G,4 | A,4 F,4 | C8- | C4 B,4 | %39
w: sin *|ven\- *|tu * * *|ra,|||Se-|púl- ten-|me|* en|
 A,8 | (G,6 F,2) | (E,4 D,4) | A,8 | A,8 | B,2 B,2 C4 | G,8 | z4 C,4 | D,4 E,4 | F,4 E,4 | %49
w: al-|ta *|sier\- *|ra,|en|al- ta sier-|ra,|Por-|que no~es-|tra- ñe|
 (F,4 G,4) | (C,2 D,2 E,2 F,2) | G,8 | z8 | z8 | z8 | z4 F,4 | (G,8 | C,6 D,2 | E,2 F,2 G,4 | %59
w: la *|tier\- * * *|ra||||Mi|cuer\-|||
 F,8) | E,4 E,4 | F,8 | D,4 E,4 | F,8 | C,8- | C,8 | z8 | z8 | z8 | z8 | z8 | z4 A,4- | %72
w: |po en|la|se- pul-|tu-|ra;|||||||Por|
 A,2 A,2 F,2 F,2 | G,8 | A,8 | G,8 | C,4 C,4 | F,8 | G,4 (C,4- | C,4 D,4) | (E,4 C,4) | D,8 | %82
w: * ver si ve-|ré|de|a-|llí Las|tier-|ras a||do *|na-|
 G,,4 G,4 | F,4 G,4 | C,2 D,2 (E,2 F,2) | G,8 | z4 (D,4 | G,8) | G,8 | (C,8 | D,8) | G,,4 G,4 | %92
w: cí, las|tier- ras|a do na\- *|cí,|a||do|na\-||cí, las|
 C,4 G,4 | (F,4 D,4) | G,8- | G,8 | (C,8 | D,8) | G,,16 |] %99
w: tier- ras|a *|do||na\-||cí.|

